images/svg/call.svg

<?xml version="1.0" encoding="utf-8"?>
<!-- Uploaded to: SVG Repo, www.svgrepo.com, Generator: SVG Repo Mixer Tools -->
<svg width="800px" height="800px" viewBox="0 0 24 24" fill="none" xmlns="http://www.w3.org/2000/svg">
<g clip-path="url(#clip0_15_529)">
<rect width="24" height="24" fill="white"/>
<path d="M2.01394 6.87134C1.34749 10.0618 3.85967 13.8597 7.01471 17.0147C10.1698 20.1698 13.9676 22.682 17.1581 22.0155C19.782 21.4674 21.1215 20.0697 21.8754 18.8788C22.1355 18.4678 22.0042 17.9344 21.6143 17.6436L17.9224 14.8897C17.5243 14.5928 16.9685 14.633 16.6174 14.9842L14.6577 16.9438C14.6577 16.9438 12.7529 16.3246 10.2288 13.8006C7.70482 11.2766 7.08564 9.37175 7.08564 9.37175L9.04529 7.4121C9.39648 7.06091 9.43671 6.5052 9.13975 6.10709L6.38585 2.4151C6.09505 2.02525 5.56163 1.89395 5.15068 2.15407C3.9597 2.90794 2.56203 4.24747 2.01394 6.87134Z" stroke="#000000" stroke-linecap="round" stroke-linejoin="round"/>
</g>
<defs>
<clipPath id="clip0_15_529">
<rect width="24" height="24" fill="white"/>
</clipPath>
</defs>
</svg>

<svg width="800" height="800" viewBox="0 0 24 24" fill="none" xmlns="http://www.w3.org/2000/svg"><g clip-path="url(#clip0_15_529)"><path fill="#fff" d="M0 0h24v24H0z"/><path d="M2.014 6.871c-.667 3.19 1.846 6.989 5 10.144 3.156 3.155 6.954 5.667 10.144 5 2.624-.548 3.963-1.945 4.717-3.136.26-.411.13-.945-.26-1.235l-3.693-2.754a1 1 0 00-1.305.094l-1.96 1.96s-1.904-.62-4.428-3.143c-2.524-2.524-3.143-4.43-3.143-4.43l1.96-1.959a1 1 0 00.094-1.305L6.386 2.415c-.291-.39-.824-.521-1.235-.26-1.191.753-2.589 2.092-3.137 4.716z" stroke="#000" stroke-linecap="round" stroke-linejoin="round"/></g><defs><clipPath id="clip0_15_529"><path fill="#fff" d="M0 0h24v24H0z"/></clipPath></defs></svg>
